src/app/components/golos-ui/Icon/assets/ic_monitor.svg

<?xml version="1.0" encoding="UTF-8"?>
<svg width="34px" height="31px" viewBox="0 0 34 31" version="1.1" xmlns="http://www.w3.org/2000/svg" xmlns:xlink="http://www.w3.org/1999/xlink">
    <!-- Generator: Sketch 51.2 (57519) - http://www.bohemiancoding.com/sketch -->
    <title>ic_monitor</title>
    <desc>Created with Sketch.</desc>
    <defs></defs>
    <g id="FAQ" stroke="none" stroke-width="1" fill="none" fill-rule="evenodd">
        <g transform="translate(-84.000000, -1368.000000)" fill="#FFC80A" id="Group-7">
            <g transform="translate(0.000000, 1202.000000)">
                <g id="Group-22" transform="translate(64.000000, 141.000000)">
                    <g id="ic_monitor" transform="translate(20.000000, 25.000000)">
                        <path d="M29.751057,0.0821902017 L4.18569948,0.0821902017 C1.88136269,0.0821902017 0,1.98337464 0,4.3274928 L0,20.7728588 C0,23.1099193 1.87449223,25.018072 4.18569948,25.018072 L16.0169948,25.018072 L16.0169948,29.070317 L10.1188756,29.070317 C9.59037824,29.070317 9.16749223,29.4992248 9.16749223,30.0352478 C9.16749223,30.5712709 9.59037824,30.9998213 10.1188756,30.9998213 L23.8174404,30.9998213 C24.3459378,30.9998213 24.7688238,30.5712709 24.7688238,30.0352478 C24.7688238,29.4992248 24.3459378,29.070317 23.8174404,29.070317 L17.9196736,29.070317 L17.9196736,25.018072 L29.751057,25.018072 C32.0553057,25.018072 33.9366684,23.1168876 33.9366684,20.7728588 L33.9366684,4.3274928 C33.9366684,1.98337464 32.0621762,0.0821902017 29.751057,0.0821902017 Z M4.18569948,2.01205187 L29.7579275,2.01205187 C31.0120518,2.01205187 32.0412124,3.0480951 32.0412124,4.3274928 L32.0412124,18.0710346 L1.90276684,18.0710346 L1.90276684,4.3274928 C1.90276684,3.0480951 2.92426425,2.01205187 4.18569948,2.01205187 Z M29.751057,23.0882997 L4.18569948,23.0882997 C2.93148705,23.0882997 1.90276684,22.0521671 1.90276684,20.7728588 L1.90276684,20.0008963 L32.0339896,20.0008963 L32.0339896,20.7728588 C32.0339896,22.0448415 31.0120518,23.0882997 29.751057,23.0882997 Z" id="Fill-1"></path>
                    </g>
                </g>
            </g>
        </g>
    </g>
</svg>

<svg width="34" height="31" viewBox="0 0 34 31" xmlns="http://www.w3.org/2000/svg"><path d="M29.751.082H4.186C1.88.082 0 1.983 0 4.327v16.446c0 2.337 1.874 4.245 4.186 4.245h11.831v4.052h-5.898a.954.954 0 0 0-.952.965c0 .536.423.965.952.965h13.698a.954.954 0 0 0 .952-.965.954.954 0 0 0-.952-.965H17.92v-4.052h11.83c2.304 0 4.186-1.901 4.186-4.245V4.327c0-2.344-1.875-4.245-4.186-4.245zM4.186 2.012h25.572c1.254 0 2.283 1.036 2.283 2.315v13.744H1.903V4.327c0-1.279 1.021-2.315 2.283-2.315zM29.75 23.088H4.186c-1.255 0-2.283-1.036-2.283-2.315V20h30.131v.772c0 1.272-1.022 2.315-2.283 2.315z" fill="#FFC80A" fill-rule="evenodd"/></svg>
